ERK
CUT[RINGEL RINGEL REIHE]
REG[Europa, Mitteleuropa, Deutschland, Thueringen; Franken]
TRD[]
FKT[]
SIG[E1870]
KEY[E1870   08  F 2/4]
MEL[5566  5_3_
    5566  5_3_
    5566  553_
    6543  221_ //]
BEM[]
MEL_SEM[0 2 0 -2 -3 3 0 2 0 -2 -3 3 0 2 0 -2 0 -3 5 -2 -2 -1 -2 0 -2]
MEL_RAW[5566  53
    5566  53
    5566  553
    6543  221]
NO_REP[5653
    5653
    5653
    654321]
RTM[xxxx  x_x_
    xxxx  x_x_
    xxxx  xxx_
    xxxx  xxx_]
SCL_DEG[123456]
SCL_SEM[2 2 1 2 2]

